dist/img/social/whatsapp.svg

<svg width="14" height="14" viewBox="0 0 14 14" fill="none" xmlns="http://www.w3.org/2000/svg">
<path d="M11.875 2.0625C10.5938 0.75 8.84375 0 6.96875 0C3.15625 0 0.03125 3.125 0.03125 6.9375C0.03125 8.1875 0.375 9.375 0.96875 10.4062L0 14L3.65625 13.0625C4.6875 13.5938 5.8125 13.9062 6.96875 13.9062C10.8125 13.9062 14 10.7812 14 6.96875C14 5.09375 13.1875 3.375 11.875 2.0625ZM6.96875 12.7188C5.9375 12.7188 4.9375 12.4375 4.03125 11.9062L3.84375 11.7812L1.65625 12.375L2.25 10.25L2.09375 10.0312C1.53125 9.09375 1.21875 8.03125 1.21875 6.9375C1.21875 3.78125 3.8125 1.1875 7 1.1875C8.53125 1.1875 9.96875 1.78125 11.0625 2.875C12.1562 3.96875 12.8125 5.40625 12.8125 6.96875C12.8125 10.125 10.1562 12.7188 6.96875 12.7188ZM10.1562 8.40625C9.96875 8.3125 9.125 7.90625 8.96875 7.84375C8.8125 7.78125 8.6875 7.75 8.5625 7.9375C8.46875 8.09375 8.125 8.5 8.03125 8.625C7.90625 8.71875 7.8125 8.75 7.65625 8.65625C6.625 8.15625 5.96875 7.75 5.28125 6.59375C5.09375 6.28125 5.46875 6.3125 5.78125 5.65625C5.84375 5.53125 5.8125 5.4375 5.78125 5.34375C5.75 5.25 5.375 4.40625 5.25 4.0625C5.09375 3.71875 4.96875 3.75 4.84375 3.75C4.75 3.75 4.625 3.75 4.53125 3.75C4.40625 3.75 4.21875 3.78125 4.0625 3.96875C3.90625 4.15625 3.46875 4.5625 3.46875 5.40625C3.46875 6.28125 4.0625 7.09375 4.15625 7.21875C4.25 7.3125 5.375 9.0625 7.125 9.8125C8.21875 10.3125 8.65625 10.3438 9.21875 10.25C9.53125 10.2188 10.2188 9.84375 10.375 9.4375C10.5312 9.03125 10.5312 8.6875 10.4688 8.625C10.4375 8.53125 10.3125 8.5 10.1562 8.40625Z" fill="#707070"/>
</svg>

<svg width="14" height="14" fill="none" xmlns="http://www.w3.org/2000/svg"><path d="M11.875 2.063A6.826 6.826 0 0 0 6.969 0C3.156 0 .03 3.125.03 6.938c0 1.25.344 2.437.938 3.468L0 14l3.656-.938c1.031.532 2.156.844 3.313.844 3.843 0 7.031-3.125 7.031-6.937 0-1.875-.813-3.594-2.125-4.907ZM6.969 12.719a5.78 5.78 0 0 1-2.938-.813l-.187-.125-2.188.594.594-2.125-.156-.219c-.563-.937-.875-2-.875-3.094 0-3.156 2.593-5.75 5.781-5.75 1.531 0 2.969.594 4.063 1.688 1.093 1.094 1.75 2.531 1.75 4.094 0 3.156-2.657 5.75-5.844 5.75Zm3.187-4.313c-.187-.094-1.031-.5-1.187-.562-.156-.063-.281-.094-.406.093-.094.157-.438.563-.532.688-.125.094-.219.125-.375.031-1.031-.5-1.687-.906-2.375-2.062-.187-.313.188-.282.5-.938.063-.125.032-.218 0-.312-.031-.094-.406-.938-.531-1.282-.156-.343-.281-.312-.406-.312H4.53a.586.586 0 0 0-.468.219c-.157.187-.594.594-.594 1.437 0 .875.594 1.688.687 1.813.094.093 1.219 1.843 2.969 2.593 1.094.5 1.531.532 2.094.438.312-.031 1-.406 1.156-.813.156-.406.156-.75.094-.812-.031-.094-.156-.125-.313-.219Z" fill="#707070"/></svg>
